symbols/web/looks_6/materialsymbolssharp/looks_6_wght100grad200_48px.svg

<svg xmlns="http://www.w3.org/2000/svg" height="48" width="48"><path d="M20.8 23.05V16.6h6.15v-1.75h-7.9v18.3H29v-10.1Zm0 1.75h6.45v6.6H20.8ZM7.95 40.05V7.95h32.1v32.1ZM9.7 38.3h28.6V9.7H9.7Zm0 0V9.7v28.6Z"/></svg>

<svg xmlns="http://www.w3.org/2000/svg" height="48" width="48"><path d="M20.8 23.05V16.6H26.95V14.85H19.05V33.15H29V23.05ZM20.8 24.8H27.25V31.4H20.8ZM7.95 40.05V7.95H40.05V40.05ZM9.7 38.3H38.3V9.7H9.7ZM9.7 38.3V9.7V38.3Z"/></svg>
